; generated by PrusaSlicer 2.3.3+win64 on 2021-10-10 at 16:45:05 UTC

; 

; external perimeters extrusion width = 0.45mm
; perimeters extrusion width = 0.45mm
; infill extrusion width = 0.45mm
; solid infill extrusion width = 0.45mm
; top infill extrusion width = 0.40mm
; first layer extrusion width = 0.42mm

M201 X9000 Y9000 Z500 E10000 ; sets maximum accelerations, mm/sec^2
M203 X500 Y500 Z12 E120 ; sets maximum feedrates, mm/sec
M204 P1500 R1500 T1500 ; sets acceleration (P, T) and retract acceleration (R), mm/sec^2
M205 X10.00 Y10.00 Z0.20 E2.50 ; sets the jerk limits, mm/sec
M205 S0 T0 ; sets the minimum extruding and travel feed rate, mm/sec
M107
M190 S105 ; set bed temperature and wait for it to be reached
M104 S225 ; set temperature
;TYPE:Custom
G28 ; home all axes
G1 Z5 F5000 ; lift nozzle
M109 S225 ; set temperature and wait for it to be reached
G21 ; set units to millimeters
G90 ; use absolute coordinates
M82 ; use absolute distances for extrusion
G92 E0
;LAYER_CHANGE
;Z:0.2
;HEIGHT:0.2
G1 Z0.200 F7200.000
G1 E-2.00000 F2400.000
G92 E0
G1 X128.459 Y60.275 F7200.000
G1 E2.00000 F2400.000
M204 S500
;TYPE:Skirt
;WIDTH:0.42
G1 F1200.000
G1 X129.142 Y59.680 E2.02838
G1 X129.953 Y59.289 E2.05663
G1 X130.844 Y59.127 E2.08501
G1 X169.005 Y59.123 E3.28152
G1 X169.645 Y59.185 E3.30170
G1 X170.267 Y59.369 E3.32202
G1 X170.838 Y59.667 E3.34221
G1 X171.342 Y60.067 E3.36239
G1 X171.761 Y60.555 E3.38257
G1 X172.082 Y61.119 E3.40290
G1 X172.288 Y61.729 E3.42308
G1 X172.375 Y62.371 E3.44341
G1 X172.377 Y137.514 E5.79945
G1 X172.289 Y138.265 E5.82317
G1 X172.038 Y138.974 E5.84675
G1 X171.535 Y139.732 E5.87528
G1 X170.847 Y140.327 E5.90380
G1 X170.021 Y140.719 E5.93247
G1 X169.124 Y140.875 E5.96100
G1 X130.973 Y140.877 E7.15722
G1 X130.230 Y140.788 E7.18066
G1 X129.526 Y140.538 E7.20410
G1 X128.758 Y140.026 E7.23304
G1 X128.155 Y139.320 E7.26213
G1 X127.769 Y138.482 E7.29108
G1 X127.624 Y137.565 E7.32017
G1 X127.623 Y62.486 E9.67422
G1 X127.711 Y61.735 E9.69795
G1 X127.962 Y61.026 E9.72153
G1 X128.426 Y60.325 E9.74789
G1 E7.74789 F2400.000
G92 E0
G1 X132.771 Y109.250 F7200.000
G1 E2.00000 F2400.000
;TYPE:Perimeter
G1 F1200.000
G1 X166.579 Y109.250 E3.06001
G1 X166.579 Y128.277 E3.65660
G1 X132.771 Y128.277 E4.71661
G1 X132.771 Y109.310 E5.31132
G1 X133.148 Y109.627 F7200.000
G1 F1200.000
G1 X166.202 Y109.627 E6.34769
G1 X166.202 Y127.900 E6.92063
G1 X133.148 Y127.900 E7.95699
G1 X133.148 Y109.687 E8.52805
G1 X133.526 Y110.004 F7200.000
G1 F1200.000
G1 X165.825 Y110.004 E9.54077
G1 X165.825 Y127.523 E10.09007
G1 X133.526 Y127.523 E11.10279
G1 X133.526 Y110.064 E11.65020
G1 X133.903 Y110.381 F7200.000
;TYPE:External perimeter
G1 F1200.000
G1 X165.448 Y110.381 E12.63928
G1 X165.448 Y127.146 E13.16492
G1 X133.903 Y127.146 E14.15400
G1 X133.903 Y110.441 E14.67777
G1 X133.761 Y110.007 F7200.000
G1 E12.67777 F2400.000
G92 E0
G1 X132.441 Y136.059 F7200.000
G1 E2.00000 F2400.000
;TYPE:Perimeter
G1 F1200.000
G1 X132.441 Y63.941 E4.26119
G1 X167.559 Y63.941 E5.36228
G1 X167.559 Y136.059 E7.62347
G1 X132.501 Y136.059 E8.72268
G1 X132.064 Y136.436 F7200.000
G1 F1200.000
G1 X132.064 Y63.564 E11.00752
G1 X167.936 Y63.564 E12.13225
G1 X167.936 Y136.436 E14.41709
G1 X132.124 Y136.436 E15.53994
G1 X131.687 Y136.813 F7200.000
G1 F1200.000
G1 X131.687 Y63.187 E17.84843
G1 X168.313 Y63.187 E18.99681
G1 X168.313 Y136.813 E21.30529
G1 X131.747 Y136.813 E22.45179
G1 X131.310 Y137.190 F7200.000
;TYPE:External perimeter
G1 F1200.000
G1 X131.310 Y62.810 E24.78392
G1 X168.690 Y62.810 E25.95594
G1 X168.690 Y137.190 E28.28808
G1 X131.370 Y137.190 E29.45822
G1 X131.372 Y136.795 F7200.000
G1 E27.45822 F2400.000
G92 E0
G1 X167.446 Y64.818 F7200.000
G1 E2.00000 F2400.000
;TYPE:Solid infill
;WIDTH:0.42072
G1 F1200.000
G1 X166.852 Y64.224 E2.02639
G1 X166.317 Y64.224 E2.04318
G1 X167.276 Y65.183 E2.08577
G1 X167.276 Y65.717 E2.10256
G1 X165.783 Y64.224 E2.16888
G1 X165.249 Y64.224 E2.18567
G1 X167.276 Y66.251 E2.27573
G1 X167.276 Y66.786 E2.29252
G1 X164.714 Y64.224 E2.40632
G1 X164.180 Y64.224 E2.42310
G1 X167.276 Y67.320 E2.56064
G1 X167.276 Y67.854 E2.57743
G1 X163.646 Y64.224 E2.73870
G1 X163.112 Y64.224 E2.75549
G1 X167.276 Y68.388 E2.94050
G1 X167.276 Y68.923 E2.95728
G1 X162.577 Y64.224 E3.16603
G1 X162.043 Y64.224 E3.18282
G1 X167.276 Y69.457 E3.41530
G1 X167.276 Y69.991 E3.43209
G1 X161.509 Y64.224 E3.68831
G1 X160.974 Y64.224 E3.70509
G1 X167.276 Y70.526 E3.98505
G1 X167.276 Y71.060 E4.00183
G1 X160.440 Y64.224 E4.30553
G1 X159.906 Y64.224 E4.32231
G1 X167.276 Y71.594 E4.64974
G1 X167.276 Y72.129 E4.66653
G1 X159.371 Y64.224 E5.01770
G1 X158.837 Y64.224 E5.03448
G1 X167.276 Y72.663 E5.40938
G1 X167.276 Y73.197 E5.42617
G1 X158.303 Y64.224 E5.82481
G1 X157.769 Y64.224 E5.84159
G1 X167.276 Y73.731 E6.26397
G1 X167.276 Y74.266 E6.28076
G1 X157.234 Y64.224 E6.72687
G1 X156.700 Y64.224 E6.74365
G1 X167.276 Y74.800 E7.21350
G1 X167.276 Y75.334 E7.23029
G1 X156.166 Y64.224 E7.72388
G1 X155.631 Y64.224 E7.74066
G1 X167.276 Y75.869 E8.25798
G1 X167.276 Y76.403 E8.27477
G1 X155.097 Y64.224 E8.81583
G1 X154.563 Y64.224 E8.83261
G1 X167.276 Y76.937 E9.39741
G1 X167.276 Y77.471 E9.41419
G1 X154.029 Y64.224 E10.00273
G1 X153.494 Y64.224 E10.01951
G1 X167.276 Y78.006 E10.63178
G1 X167.276 Y78.540 E10.64857
G1 X152.960 Y64.224 E11.28457
G1 X152.426 Y64.224 E11.30136
G1 X167.276 Y79.074 E11.96110
G1 X167.276 Y79.609 E11.97788
G1 X151.891 Y64.224 E12.66136
G1 X151.357 Y64.224 E12.67815
G1 X167.276 Y80.143 E13.38536
G1 X167.276 Y80.677 E13.40215
G1 X150.823 Y64.224 E14.13310
G1 X150.289 Y64.224 E14.14989
G1 X167.276 Y81.211 E14.90458
G1 X167.276 Y81.746 E14.92136
G1 X149.754 Y64.224 E15.69979
G1 X149.220 Y64.224 E15.71657
G1 X167.276 Y82.280 E16.51873
G1 X167.276 Y82.814 E16.53552
G1 X148.686 Y64.224 E17.36142
G1 X148.151 Y64.224 E17.37820
G1 X167.276 Y83.349 E18.22784
G1 X167.276 Y83.883 E18.24462
G1 X147.617 Y64.224 E19.11799
G1 X147.083 Y64.224 E19.13478
G1 X167.276 Y84.417 E20.03189
G1 X167.276 Y84.951 E20.04867
G1 X146.549 Y64.224 E20.96951
G1 X146.014 Y64.224 E20.98630
G1 X167.276 Y85.486 E21.93088
G1 X167.276 Y86.020 E21.94767
G1 X145.480 Y64.224 E22.91598
G1 X144.946 Y64.224 E22.93277
G1 X167.276 Y86.554 E23.92482
G1 X167.276 Y87.089 E23.94161
G1 X144.411 Y64.224 E24.95740
G1 X143.877 Y64.224 E24.97418
G1 X167.276 Y87.623 E26.01371
G1 X167.276 Y88.157 E26.03050
G1 X143.343 Y64.224 E27.09376
G1 X142.808 Y64.224 E27.11055
G1 X167.276 Y88.692 E28.19755
G1 X167.276 Y89.226 E28.21433
G1 X142.274 Y64.224 E29.32507
G1 X141.740 Y64.224 E29.34185
G1 X167.276 Y89.760 E30.47633
G1 X167.276 Y90.294 E30.49311
G1 X141.206 Y64.224 E31.65132
G1 X140.671 Y64.224 E31.66811
G1 X167.276 Y90.829 E32.85006
G1 X167.276 Y91.363 E32.86684
G1 X140.137 Y64.224 E34.07252
G1 X139.603 Y64.224 E34.08931
G1 X167.276 Y91.897 E35.31873
G1 X167.276 Y92.432 E35.33551
G1 X139.068 Y64.224 E36.58867
G1 X138.534 Y64.224 E36.60545
G1 X167.276 Y92.966 E37.88235
G1 X167.276 Y93.500 E37.89913
G1 X138.000 Y64.224 E39.19976
G1 X137.466 Y64.224 E39.21655
G1 X167.276 Y94.034 E40.54091
G1 X167.276 Y94.569 E40.55770
G1 X136.931 Y64.224 E41.90580
G1 X136.397 Y64.224 E41.92259
G1 X167.276 Y95.103 E43.29443
G1 X167.276 Y95.637 E43.31121
G1 X135.863 Y64.224 E44.70679
G1 X135.328 Y64.224 E44.72357
G1 X167.276 Y96.172 E46.14289
G1 X167.276 Y96.706 E46.15967
G1 X134.794 Y64.224 E47.60272
G1 X134.260 Y64.224 E47.61950
G1 X167.276 Y97.240 E49.08629
G1 X167.276 Y97.774 E49.10307
G1 X133.726 Y64.224 E50.59360
G1 X133.191 Y64.224 E50.61038
G1 X167.276 Y98.309 E52.12464
G1 X167.276 Y98.843 E52.14143
G1 X132.724 Y64.291 E53.67644
G1 X132.724 Y64.825 E53.69323
G1 X167.276 Y99.377 E55.22825
G1 X167.276 Y99.912 E55.24503
G1 X132.724 Y65.360 E56.78005
G1 X132.724 Y65.894 E56.79683
G1 X167.276 Y100.446 E58.33185
G1 X167.276 Y100.980 E58.34863
G1 X132.724 Y66.428 E59.88365
G1 X132.724 Y66.963 E59.90043
G1 X167.276 Y101.514 E61.43545
G1 X167.276 Y102.049 E61.45224
G1 X132.724 Y67.497 E62.98725
G1 X132.724 Y68.031 E63.00404
G1 X167.276 Y102.583 E64.53906
G1 X167.276 Y103.117 E64.55584
G1 X132.724 Y68.565 E66.09086
G1 X132.724 Y69.100 E66.10764
G1 X167.276 Y103.652 E67.64266
G1 X167.276 Y104.186 E67.65944
G1 X132.724 Y69.634 E69.19446
G1 X132.724 Y70.168 E69.21124
G1 X167.276 Y104.720 E70.74626
G1 X167.276 Y105.254 E70.76305
G1 X132.724 Y70.703 E72.29806
G1 X132.724 Y71.237 E72.31485
G1 X167.276 Y105.789 E73.84987
G1 X167.276 Y106.323 E73.86665
G1 X132.724 Y71.771 E75.40167
G1 X132.724 Y72.305 E75.41845
G1 X167.276 Y106.857 E76.95347
G1 X167.276 Y107.392 E76.97025
G1 X132.724 Y72.840 E78.50527
G1 X132.724 Y73.374 E78.52205
G1 X167.276 Y107.926 E80.05707
G1 X167.276 Y108.460 E80.07386
G1 X132.724 Y73.908 E81.60887
G1 X132.724 Y74.443 E81.62566
G1 X167.276 Y108.995 E83.16068
G1 X167.276 Y109.529 E83.17746
G1 X132.724 Y74.977 E84.71248
G1 X132.724 Y75.511 E84.72926
G1 X166.180 Y108.967 E86.21560
G1 X165.646 Y108.967 E86.23239
G1 X132.724 Y76.045 E87.69499
G1 X132.724 Y76.580 E87.71177
G1 X165.112 Y108.967 E89.15064
G1 X164.577 Y108.967 E89.16743
G1 X132.724 Y77.114 E90.58256
G1 X132.724 Y77.648 E90.59934
G1 X164.043 Y108.967 E91.99073
G1 X163.509 Y108.967 E92.00752
G1 X132.724 Y78.183 E93.37518
G1 X132.724 Y78.717 E93.39196
G1 X162.975 Y108.967 E94.73588
G1 X162.440 Y108.967 E94.75267
G1 X132.724 Y79.251 E96.07285
G1 X132.724 Y79.785 E96.08963
G1 X161.906 Y108.967 E97.38608
G1 X161.372 Y108.967 E97.40287
G1 X132.724 Y80.320 E98.67558
G1 X132.724 Y80.854 E98.69236
G1 X160.837 Y108.967 E99.94134
G1 X160.303 Y108.967 E99.95812
G1 X132.724 Y81.388 E101.18336
G1 X132.724 Y81.923 E101.20014
G1 X159.769 Y108.967 E102.40164
G1 X159.235 Y108.967 E102.41843
G1 X132.724 Y82.457 E103.59619
G1 X132.724 Y82.991 E103.61298
G1 X158.700 Y108.967 E104.76701
G1 X158.166 Y108.967 E104.78379
G1 X132.724 Y83.526 E105.91408
G1 X132.724 Y84.060 E105.93087
G1 X157.632 Y108.967 E107.03742
G1 X157.097 Y108.967 E107.05420
G1 X132.724 Y84.594 E108.13702
G1 X132.724 Y85.128 E108.15381
G1 X156.563 Y108.967 E109.21289
G1 X156.029 Y108.967 E109.22967
G1 X132.724 Y85.663 E110.26502
G1 X132.724 Y86.197 E110.28180
G1 X155.494 Y108.967 E111.29341
G1 X154.960 Y108.967 E111.31020
G1 X132.724 Y86.731 E112.29807
G1 X132.724 Y87.266 E112.31485
G1 X154.426 Y108.967 E113.27899
G1 X153.892 Y108.967 E113.29577
G1 X132.724 Y87.800 E114.23617
G1 X132.724 Y88.334 E114.25296
G1 X153.357 Y108.967 E115.16962
G1 X152.823 Y108.967 E115.18640
G1 X132.724 Y88.868 E116.07933
G1 X132.724 Y89.403 E116.09611
G1 X152.289 Y108.967 E116.96530
G1 X151.754 Y108.967 E116.98209
G1 X132.724 Y89.937 E117.82754
G1 X132.724 Y90.471 E117.84432
G1 X151.220 Y108.967 E118.66604
G1 X150.686 Y108.967 E118.68283
G1 X132.724 Y91.006 E119.48081
G1 X132.724 Y91.540 E119.49759
G1 X150.152 Y108.967 E120.27183
G1 X149.617 Y108.967 E120.28862
G1 X132.724 Y92.074 E121.03912
G1 X132.724 Y92.608 E121.05591
G1 X149.083 Y108.967 E121.78268
G1 X148.549 Y108.967 E121.79946
G1 X132.724 Y93.143 E122.50250
G1 X132.724 Y93.677 E122.51928
G1 X148.014 Y108.967 E123.19858
G1 X147.480 Y108.967 E123.21536
G1 X132.724 Y94.211 E123.87092
G1 X132.724 Y94.746 E123.88771
G1 X146.946 Y108.967 E124.51953
G1 X146.412 Y108.967 E124.53631
G1 X132.724 Y95.280 E125.14440
G1 X132.724 Y95.814 E125.16118
G1 X145.877 Y108.967 E125.74554
G1 X145.343 Y108.967 E125.76232
G1 X132.724 Y96.348 E126.32293
G1 X132.724 Y96.883 E126.33972
G1 X144.809 Y108.967 E126.87660
G1 X144.274 Y108.967 E126.89338
G1 X132.724 Y97.417 E127.40652
G1 X132.724 Y97.951 E127.42330
G1 X143.740 Y108.967 E127.91271
G1 X143.206 Y108.967 E127.92949
G1 X132.724 Y98.486 E128.39516
G1 X132.724 Y99.020 E128.41195
G1 X142.672 Y108.967 E128.85388
G1 X142.137 Y108.967 E128.87066
G1 X132.724 Y99.554 E129.28886
G1 X132.724 Y100.089 E129.30564
G1 X141.603 Y108.967 E129.70010
G1 X141.069 Y108.967 E129.71688
G1 X132.724 Y100.623 E130.08760
G1 X132.724 Y101.157 E130.10439
G1 X140.534 Y108.967 E130.45137
G1 X140.000 Y108.967 E130.46816
G1 X132.724 Y101.691 E130.79141
G1 X132.724 Y102.226 E130.80819
G1 X139.466 Y108.967 E131.10770
G1 X138.931 Y108.967 E131.12449
G1 X132.724 Y102.760 E131.40026
G1 X132.724 Y103.294 E131.41705
G1 X138.397 Y108.967 E131.66908
G1 X137.863 Y108.967 E131.68587
G1 X132.724 Y103.829 E131.91417
G1 X132.724 Y104.363 E131.93095
G1 X137.329 Y108.967 E132.13552
G1 X136.794 Y108.967 E132.15230
G1 X132.724 Y104.897 E132.33313
G1 X132.724 Y105.431 E132.34992
G1 X136.260 Y108.967 E132.50701
G1 X135.726 Y108.967 E132.52379
G1 X132.724 Y105.966 E132.65715
G1 X132.724 Y106.500 E132.67393
G1 X135.191 Y108.967 E132.78355
G1 X134.657 Y108.967 E132.80034
G1 X132.724 Y107.034 E132.88622
G1 X132.724 Y107.569 E132.90300
G1 X134.123 Y108.967 E132.96515
G1 X133.589 Y108.967 E132.98194
G1 X132.724 Y108.103 E133.02034
G1 X132.724 Y108.637 E133.03713
G1 X133.224 Y109.137 E133.05934
G1 E131.05934 F2400.000
G92 E0
G1 X166.692 Y109.479 F7200.000
G1 E2.00000 F2400.000
G1 F1200.000
G1 X167.276 Y110.063 E2.02594
G1 X167.276 Y110.597 E2.04272
G1 X166.862 Y110.183 E2.06112
G1 X166.862 Y110.717 E2.07791
G1 X167.276 Y111.132 E2.09631
G1 X167.276 Y111.666 E2.11309
G1 X166.862 Y111.252 E2.13149
G1 X166.862 Y111.786 E2.14828
G1 X167.276 Y112.200 E2.16668
G1 X167.276 Y112.735 E2.18346
G1 X166.862 Y112.320 E2.20187
G1 X166.862 Y112.855 E2.21865
G1 X167.276 Y113.269 E2.23705
G1 X167.276 Y113.803 E2.25383
G1 X166.862 Y113.389 E2.27224
G1 X166.862 Y113.923 E2.28902
G1 X167.276 Y114.337 E2.30742
G1 X167.276 Y114.872 E2.32421
G1 X166.862 Y114.458 E2.34261
G1 X166.862 Y114.992 E2.35939
G1 X167.276 Y115.406 E2.37779
G1 X167.276 Y115.940 E2.39458
G1 X166.862 Y115.526 E2.41298
G1 X166.862 Y116.060 E2.42976
G1 X167.276 Y116.475 E2.44816
G1 X167.276 Y117.009 E2.46495
G1 X166.862 Y116.595 E2.48335
G1 X166.862 Y117.129 E2.50013
G1 X167.276 Y117.543 E2.51853
G1 X167.276 Y118.077 E2.53532
G1 X166.862 Y117.663 E2.55372
G1 X166.862 Y118.198 E2.57050
G1 X167.276 Y118.612 E2.58890
G1 X167.276 Y119.146 E2.60569
G1 X166.862 Y118.732 E2.62409
G1 X166.862 Y119.266 E2.64087
G1 X167.276 Y119.680 E2.65927
G1 X167.276 Y120.215 E2.67606
G1 X166.862 Y119.800 E2.69446
G1 X166.862 Y120.335 E2.71124
G1 X167.276 Y120.749 E2.72964
G1 X167.276 Y121.283 E2.74643
G1 X166.862 Y120.869 E2.76483
G1 X166.862 Y121.403 E2.78161
G1 X167.276 Y121.817 E2.80001
G1 X167.276 Y122.352 E2.81680
G1 X166.862 Y121.938 E2.83520
G1 X166.862 Y122.472 E2.85198
G1 X167.276 Y122.886 E2.87038
G1 X167.276 Y123.420 E2.88717
G1 X166.862 Y123.006 E2.90557
G1 X166.862 Y123.540 E2.92235
G1 X167.276 Y123.955 E2.94075
G1 X167.276 Y124.489 E2.95754
G1 X166.862 Y124.075 E2.97594
G1 X166.862 Y124.609 E2.99272
G1 X167.276 Y125.023 E3.01112
G1 X167.276 Y125.558 E3.02791
G1 X166.862 Y125.143 E3.04631
G1 X166.862 Y125.678 E3.06309
G1 X167.276 Y126.092 E3.08150
G1 X167.276 Y126.626 E3.09828
G1 X166.862 Y126.212 E3.11668
G1 X166.862 Y126.746 E3.13346
G1 X167.276 Y127.160 E3.15187
G1 X167.276 Y127.695 E3.16865
G1 X166.862 Y127.280 E3.18705
G1 X166.862 Y127.815 E3.20384
G1 X167.276 Y128.229 E3.22224
G1 X167.276 Y128.763 E3.23902
G1 X166.862 Y128.349 E3.25742
G1 X166.862 Y128.560 E3.26406
G1 X166.539 Y128.560 E3.27421
G1 X167.276 Y129.298 E3.30696
G1 X167.276 Y129.832 E3.32375
G1 X166.004 Y128.560 E3.38024
G1 X165.470 Y128.560 E3.39702
G1 X167.276 Y130.366 E3.47725
G1 X167.276 Y130.900 E3.49403
G1 X164.936 Y128.560 E3.59800
G1 X164.402 Y128.560 E3.61478
G1 X167.276 Y131.435 E3.74249
G1 X167.276 Y131.969 E3.75927
G1 X163.867 Y128.560 E3.91071
G1 X163.333 Y128.560 E3.92749
G1 X167.276 Y132.503 E4.10267
G1 X167.276 Y133.038 E4.11945
G1 X162.799 Y128.560 E4.31836
G1 X162.264 Y128.560 E4.33515
G1 X167.276 Y133.572 E4.55780
G1 X167.276 Y134.106 E4.57458
G1 X161.730 Y128.560 E4.82096
G1 X161.196 Y128.560 E4.83775
G1 X167.276 Y134.640 E5.10787
G1 X167.276 Y135.175 E5.12465
G1 X160.661 Y128.560 E5.41851
G1 X160.127 Y128.560 E5.43530
G1 X167.276 Y135.709 E5.75289
G1 X167.276 Y135.776 E5.75499
G1 X166.809 Y135.776 E5.76968
G1 X159.593 Y128.560 E6.09024
G1 X159.059 Y128.560 E6.10703
G1 X166.274 Y135.776 E6.42760
G1 X165.740 Y135.776 E6.44438
G1 X158.524 Y128.560 E6.76495
