; generated by PrusaSlicer 2.3.3+win64 on 2021-10-10 at 17:08:36 UTC

; 

; external perimeters extrusion width = 0.45mm
; perimeters extrusion width = 0.45mm
; infill extrusion width = 0.45mm
; solid infill extrusion width = 0.45mm
; top infill extrusion width = 0.40mm
; first layer extrusion width = 0.42mm

M201 X9000 Y9000 Z500 E10000 ; sets maximum accelerations, mm/sec^2
M203 X500 Y500 Z12 E120 ; sets maximum feedrates, mm/sec
M204 P1500 R1500 T1500 ; sets acceleration (P, T) and retract acceleration (R), mm/sec^2
M205 X10.00 Y10.00 Z0.20 E2.50 ; sets the jerk limits, mm/sec
M205 S0 T0 ; sets the minimum extruding and travel feed rate, mm/sec
M107
M190 S105 ; set bed temperature and wait for it to be reached
M104 S225 ; set temperature
;TYPE:Custom
G28 ; home all axes
G1 Z5 F5000 ; lift nozzle
M109 S225 ; set temperature and wait for it to be reached
G21 ; set units to millimeters
G90 ; use absolute coordinates
M82 ; use absolute distances for extrusion
G92 E0
;LAYER_CHANGE
;Z:0.2
;HEIGHT:0.2
G1 Z0.200 F7200.000
G1 E-2.00000 F2400.000
G92 E0
G1 X128.459 Y60.275 F7200.000
G1 E2.00000 F2400.000
M204 S500
;TYPE:Skirt
;WIDTH:0.42
G1 F1200.000
G1 X129.142 Y59.680 E2.02838
G1 X129.953 Y59.289 E2.05663
G1 X130.844 Y59.127 E2.08501
G1 X169.005 Y59.123 E3.28152
G1 X169.645 Y59.185 E3.30170
G1 X170.267 Y59.369 E3.32202
G1 X170.838 Y59.667 E3.34221
G1 X171.342 Y60.067 E3.36239
G1 X171.761 Y60.555 E3.38257
G1 X172.082 Y61.119 E3.40290
G1 X172.288 Y61.729 E3.42308
G1 X172.375 Y62.371 E3.44341
G1 X172.377 Y137.514 E5.79945
G1 X172.289 Y138.265 E5.82317
G1 X172.038 Y138.974 E5.84675
G1 X171.535 Y139.732 E5.87528
G1 X170.847 Y140.327 E5.90380
G1 X170.021 Y140.719 E5.93247
G1 X169.124 Y140.875 E5.96100
G1 X130.973 Y140.877 E7.15722
G1 X130.230 Y140.788 E7.18066
G1 X129.526 Y140.538 E7.20410
G1 X128.758 Y140.026 E7.23304
G1 X128.155 Y139.320 E7.26213
G1 X127.769 Y138.482 E7.29108
G1 X127.624 Y137.565 E7.32017
G1 X127.623 Y62.486 E9.67422
G1 X127.711 Y61.735 E9.69795
G1 X127.962 Y61.026 E9.72153
G1 X128.426 Y60.325 E9.74789
G1 E7.74789 F2400.000
G92 E0
G1 X139.624 Y96.079 F7200.000
G1 E2.00000 F2400.000
;TYPE:Perimeter
G1 F1200.000
G1 X147.024 Y96.076 E2.23204
G1 X147.024 Y105.815 E2.53739
G1 X139.624 Y105.815 E2.76943
G1 X139.624 Y96.139 E3.07279
G1 X140.001 Y96.457 F7200.000
G1 F1200.000
G1 X146.647 Y96.454 E3.28118
G1 X146.647 Y105.438 E3.56286
G1 X140.001 Y105.438 E3.77125
G1 X140.001 Y96.517 E4.05096
G1 X140.378 Y96.834 F7200.000
G1 F1200.000
G1 X146.270 Y96.832 E4.23571
G1 X146.270 Y105.061 E4.49370
G1 X140.378 Y105.061 E4.67844
G1 X140.378 Y96.894 E4.93451
G1 X140.755 Y97.211 F7200.000
;TYPE:External perimeter
G1 F1200.000
G1 X145.893 Y97.211 E5.09561
G1 X145.893 Y104.684 E5.32992
G1 X140.755 Y104.684 E5.49101
G1 X140.755 Y97.271 E5.72343
G1 X140.675 Y96.819 F7200.000
G1 E3.72343 F2400.000
G92 E0
G1 X132.441 Y63.941 F7200.000
G1 E2.00000 F2400.000
;TYPE:Perimeter
G1 F1200.000
G1 X167.559 Y63.941 E3.10109
G1 X167.559 Y136.059 E5.36228
G1 X132.441 Y136.059 E6.46337
G1 X132.441 Y64.001 E8.72268
G1 X132.064 Y63.564 F7200.000
G1 F1200.000
G1 X167.936 Y63.564 E9.84741
G1 X167.936 Y136.436 E12.13225
G1 X132.064 Y136.436 E13.25698
G1 X132.064 Y63.624 E15.53994
G1 X131.687 Y63.187 F7200.000
G1 F1200.000
G1 X168.313 Y63.187 E16.68832
G1 X168.313 Y136.813 E18.99681
G1 X131.687 Y136.813 E20.14518
G1 X131.687 Y63.247 E22.45179
G1 X131.310 Y62.810 F7200.000
;TYPE:External perimeter
G1 F1200.000
G1 X168.690 Y62.810 E23.62381
G1 X168.690 Y137.190 E25.95594
G1 X131.310 Y137.190 E27.12797
G1 X131.310 Y62.870 E29.45822
G1 X131.683 Y62.954 F7200.000
G1 E27.45822 F2400.000
G92 E0
G1 X167.446 Y64.818 F7200.000
G1 E2.00000 F2400.000
;TYPE:Solid infill
;WIDTH:0.42072
G1 F1200.000
G1 X166.852 Y64.224 E2.02639
G1 X166.317 Y64.224 E2.04318
G1 X167.276 Y65.183 E2.08577
G1 X167.276 Y65.717 E2.10256
G1 X165.783 Y64.224 E2.16888
G1 X165.249 Y64.224 E2.18567
G1 X167.276 Y66.251 E2.27573
G1 X167.276 Y66.786 E2.29252
G1 X164.714 Y64.224 E2.40632
G1 X164.180 Y64.224 E2.42310
G1 X167.276 Y67.320 E2.56064
G1 X167.276 Y67.854 E2.57743
G1 X163.646 Y64.224 E2.73870
G1 X163.112 Y64.224 E2.75549
G1 X167.276 Y68.388 E2.94050
G1 X167.276 Y68.923 E2.95728
G1 X162.577 Y64.224 E3.16603
G1 X162.043 Y64.224 E3.18282
G1 X167.276 Y69.457 E3.41530
G1 X167.276 Y69.991 E3.43209
G1 X161.509 Y64.224 E3.68831
G1 X160.974 Y64.224 E3.70509
G1 X167.276 Y70.526 E3.98505
G1 X167.276 Y71.060 E4.00183
G1 X160.440 Y64.224 E4.30553
G1 X159.906 Y64.224 E4.32231
G1 X167.276 Y71.594 E4.64974
G1 X167.276 Y72.129 E4.66653
G1 X159.371 Y64.224 E5.01770
G1 X158.837 Y64.224 E5.03448
G1 X167.276 Y72.663 E5.40938
G1 X167.276 Y73.197 E5.42617
G1 X158.303 Y64.224 E5.82481
G1 X157.769 Y64.224 E5.84159
G1 X167.276 Y73.731 E6.26397
G1 X167.276 Y74.266 E6.28076
G1 X157.234 Y64.224 E6.72687
G1 X156.700 Y64.224 E6.74365
G1 X167.276 Y74.800 E7.21350
G1 X167.276 Y75.334 E7.23029
G1 X156.166 Y64.224 E7.72388
G1 X155.631 Y64.224 E7.74066
G1 X167.276 Y75.869 E8.25798
G1 X167.276 Y76.403 E8.27477
G1 X155.097 Y64.224 E8.81583
G1 X154.563 Y64.224 E8.83261
G1 X167.276 Y76.937 E9.39741
G1 X167.276 Y77.471 E9.41419
G1 X154.029 Y64.224 E10.00273
G1 X153.494 Y64.224 E10.01951
G1 X167.276 Y78.006 E10.63178
G1 X167.276 Y78.540 E10.64857
G1 X152.960 Y64.224 E11.28457
G1 X152.426 Y64.224 E11.30136
G1 X167.276 Y79.074 E11.96110
G1 X167.276 Y79.609 E11.97788
G1 X151.891 Y64.224 E12.66136
G1 X151.357 Y64.224 E12.67815
G1 X167.276 Y80.143 E13.38536
G1 X167.276 Y80.677 E13.40215
G1 X150.823 Y64.224 E14.13310
G1 X150.289 Y64.224 E14.14989
G1 X167.276 Y81.211 E14.90458
G1 X167.276 Y81.746 E14.92136
G1 X149.754 Y64.224 E15.69979
G1 X149.220 Y64.224 E15.71657
G1 X167.276 Y82.280 E16.51873
G1 X167.276 Y82.814 E16.53552
G1 X148.686 Y64.224 E17.36142
G1 X148.151 Y64.224 E17.37820
G1 X167.276 Y83.349 E18.22784
G1 X167.276 Y83.883 E18.24462
G1 X147.617 Y64.224 E19.11799
G1 X147.083 Y64.224 E19.13478
G1 X167.276 Y84.417 E20.03189
G1 X167.276 Y84.951 E20.04867
G1 X146.549 Y64.224 E20.96951
G1 X146.014 Y64.224 E20.98630
G1 X167.276 Y85.486 E21.93088
G1 X167.276 Y86.020 E21.94767
G1 X145.480 Y64.224 E22.91598
G1 X144.946 Y64.224 E22.93277
G1 X167.276 Y86.554 E23.92482
G1 X167.276 Y87.089 E23.94161
G1 X144.411 Y64.224 E24.95740
G1 X143.877 Y64.224 E24.97418
G1 X167.276 Y87.623 E26.01371
G1 X167.276 Y88.157 E26.03050
G1 X143.343 Y64.224 E27.09376
G1 X142.808 Y64.224 E27.11055
G1 X167.276 Y88.692 E28.19755
G1 X167.276 Y89.226 E28.21433
G1 X142.274 Y64.224 E29.32507
G1 X141.740 Y64.224 E29.34185
G1 X167.276 Y89.760 E30.47633
G1 X167.276 Y90.294 E30.49311
G1 X141.206 Y64.224 E31.65132
G1 X140.671 Y64.224 E31.66811
G1 X167.276 Y90.829 E32.85006
G1 X167.276 Y91.363 E32.86684
G1 X140.137 Y64.224 E34.07252
G1 X139.603 Y64.224 E34.08931
G1 X167.276 Y91.897 E35.31873
G1 X167.276 Y92.432 E35.33551
G1 X139.068 Y64.224 E36.58867
G1 X138.534 Y64.224 E36.60545
G1 X167.276 Y92.966 E37.88235
G1 X167.276 Y93.500 E37.89913
G1 X138.000 Y64.224 E39.19976
G1 X137.466 Y64.224 E39.21655
G1 X167.276 Y94.034 E40.54091
G1 X167.276 Y94.569 E40.55770
G1 X136.931 Y64.224 E41.90580
G1 X136.397 Y64.224 E41.92259
G1 X167.276 Y95.103 E43.29443
G1 X167.276 Y95.637 E43.31121
G1 X135.863 Y64.224 E44.70679
G1 X135.328 Y64.224 E44.72357
G1 X167.276 Y96.172 E46.14289
G1 X167.276 Y96.706 E46.15967
G1 X134.794 Y64.224 E47.60272
G1 X134.260 Y64.224 E47.61950
G1 X167.276 Y97.240 E49.08629
G1 X167.276 Y97.774 E49.10307
G1 X133.726 Y64.224 E50.59360
G1 X133.191 Y64.224 E50.61038
G1 X167.276 Y98.309 E52.12464
G1 X167.276 Y98.843 E52.14143
G1 X132.724 Y64.291 E53.67644
G1 X132.724 Y64.825 E53.69323
G1 X167.276 Y99.377 E55.22825
G1 X167.276 Y99.912 E55.24503
G1 X132.724 Y65.360 E56.78005
G1 X132.724 Y65.894 E56.79683
G1 X167.276 Y100.446 E58.33185
G1 X167.276 Y100.980 E58.34863
G1 X132.724 Y66.428 E59.88365
G1 X132.724 Y66.963 E59.90043
G1 X167.276 Y101.514 E61.43545
G1 X167.276 Y102.049 E61.45224
G1 X132.724 Y67.497 E62.98725
G1 X132.724 Y68.031 E63.00404
G1 X167.276 Y102.583 E64.53906
G1 X167.276 Y103.117 E64.55584
G1 X132.724 Y68.565 E66.09086
G1 X132.724 Y69.100 E66.10764
G1 X167.276 Y103.652 E67.64266
G1 X167.276 Y104.186 E67.65944
G1 X132.724 Y69.634 E69.19446
G1 X132.724 Y70.168 E69.21124
G1 X167.276 Y104.720 E70.74626
G1 X167.276 Y105.254 E70.76305
G1 X132.724 Y70.703 E72.29806
G1 X132.724 Y71.237 E72.31485
G1 X167.276 Y105.789 E73.84987
G1 X167.276 Y106.323 E73.86665
G1 X132.724 Y71.771 E75.40167
G1 X132.724 Y72.305 E75.41845
G1 X167.276 Y106.857 E76.95347
G1 X167.276 Y107.392 E76.97025
G1 X132.724 Y72.840 E78.50527
G1 X132.724 Y73.374 E78.52205
G1 X167.276 Y107.926 E80.05707
G1 X167.276 Y108.460 E80.07386
G1 X132.724 Y73.908 E81.60887
G1 X132.724 Y74.443 E81.62566
G1 X167.276 Y108.995 E83.16068
G1 X167.276 Y109.529 E83.17746
G1 X132.724 Y74.977 E84.71248
G1 X132.724 Y75.511 E84.72926
G1 X167.276 Y110.063 E86.26428
G1 X167.276 Y110.597 E86.28106
G1 X132.724 Y76.045 E87.81608
G1 X132.724 Y76.580 E87.83286
G1 X167.276 Y111.132 E89.36788
G1 X167.276 Y111.666 E89.38467
G1 X132.724 Y77.114 E90.91968
G1 X132.724 Y77.648 E90.93647
G1 X167.276 Y112.200 E92.47149
G1 X167.276 Y112.735 E92.48827
G1 X132.724 Y78.183 E94.02329
G1 X132.724 Y78.717 E94.04007
G1 X167.276 Y113.269 E95.57509
G1 X167.276 Y113.803 E95.59187
G1 X132.724 Y79.251 E97.12689
G1 X132.724 Y79.785 E97.14367
G1 X167.276 Y114.337 E98.67869
G1 X167.276 Y114.872 E98.69548
G1 X132.724 Y80.320 E100.23049
G1 X132.724 Y80.854 E100.24728
G1 X167.276 Y115.406 E101.78230
G1 X167.276 Y115.940 E101.79908
G1 X132.724 Y81.388 E103.33410
G1 X132.724 Y81.923 E103.35088
G1 X146.596 Y95.794 E103.96715
G1 X146.063 Y95.796 E103.98389
G1 X132.724 Y82.457 E104.57649
G1 X132.724 Y82.991 E104.59328
G1 X145.530 Y95.798 E105.16222
G1 X144.997 Y95.799 E105.17896
G1 X132.724 Y83.526 E105.72422
G1 X132.724 Y84.060 E105.74100
G1 X144.463 Y95.799 E106.26251
G1 X143.928 Y95.798 E106.27930
G1 X132.724 Y84.594 E106.77706
G1 X132.724 Y85.128 E106.79385
G1 X143.394 Y95.798 E107.26786
G1 X142.859 Y95.798 E107.28466
G1 X132.724 Y85.663 E107.73493
G1 X132.724 Y86.197 E107.75171
G1 X142.325 Y95.798 E108.17823
G1 X141.790 Y95.797 E108.19503
G1 X132.724 Y86.731 E108.59780
G1 X132.724 Y87.266 E108.61459
G1 X141.256 Y95.797 E108.99362
G1 X140.721 Y95.797 E109.01041
G1 X132.724 Y87.800 E109.36570
G1 X132.724 Y88.334 E109.38248
G1 X140.187 Y95.797 E109.71402
G1 X139.652 Y95.797 E109.73081
G1 X132.724 Y88.868 E110.03861
G1 X132.724 Y89.403 E110.05539
G1 X139.341 Y96.020 E110.34937
G1 X139.341 Y96.554 E110.36615
G1 X132.724 Y89.937 E110.66013
G1 X132.724 Y90.471 E110.67692
G1 X139.341 Y97.088 E110.97089
G1 X139.341 Y97.623 E110.98768
G1 X132.724 Y91.006 E111.28166
G1 X132.724 Y91.540 E111.29844
G1 X139.341 Y98.157 E111.59242
G1 X139.341 Y98.691 E111.60920
G1 X132.724 Y92.074 E111.90318
G1 X132.724 Y92.608 E111.91997
G1 X139.341 Y99.226 E112.21394
G1 X139.341 Y99.760 E112.23073
G1 X132.724 Y93.143 E112.52471
G1 X132.724 Y93.677 E112.54149
G1 X139.341 Y100.294 E112.83547
G1 X139.341 Y100.829 E112.85225
G1 X132.724 Y94.211 E113.14623
G1 X132.724 Y94.746 E113.16301
G1 X139.341 Y101.363 E113.45699
G1 X139.341 Y101.897 E113.47378
G1 X132.724 Y95.280 E113.76775
G1 X132.724 Y95.814 E113.78454
G1 X139.341 Y102.431 E114.07852
G1 X139.341 Y102.966 E114.09530
G1 X132.724 Y96.348 E114.38928
G1 X132.724 Y96.883 E114.40606
G1 X139.341 Y103.500 E114.70004
G1 X139.341 Y104.034 E114.71683
G1 X132.724 Y97.417 E115.01080
G1 X132.724 Y97.951 E115.02759
G1 X139.341 Y104.569 E115.32157
G1 X139.341 Y105.103 E115.33835
G1 X132.554 Y98.316 E115.63987
G1 E113.63987 F2400.000
G92 E0
G1 X147.138 Y96.336 F7200.000
G1 E2.00000 F2400.000
G1 F1200.000
G1 X167.276 Y116.475 E2.89467
G1 X167.276 Y117.009 E2.91146
G1 X147.307 Y97.040 E3.79860
G1 X147.307 Y97.574 E3.81538
G1 X167.276 Y117.543 E4.70252
G1 X167.276 Y118.077 E4.71930
G1 X147.307 Y98.109 E5.60644
G1 X147.307 Y98.643 E5.62322
G1 X167.276 Y118.612 E6.51036
G1 X167.276 Y119.146 E6.52714
G1 X147.307 Y99.177 E7.41428
G1 X147.307 Y99.712 E7.43106
G1 X167.276 Y119.680 E8.31820
G1 X167.276 Y120.215 E8.33498
G1 X147.307 Y100.246 E9.22212
G1 X147.307 Y100.780 E9.23890
G1 X167.276 Y120.749 E10.12604
G1 X167.276 Y121.283 E10.14282
G1 X147.307 Y101.315 E11.02996
G1 X147.307 Y101.849 E11.04675
G1 X167.276 Y121.817 E11.93388
G1 X167.276 Y122.352 E11.95067
G1 X147.307 Y102.383 E12.83780
G1 X147.307 Y102.917 E12.85459
G1 X167.276 Y122.886 E13.74172
G1 X167.276 Y123.420 E13.75851
G1 X147.307 Y103.452 E14.64564
G1 X147.307 Y103.986 E14.66243
G1 X167.276 Y123.955 E15.54956
G1 X167.276 Y124.489 E15.56635
G1 X147.307 Y104.520 E16.45348
G1 X147.307 Y105.055 E16.47027
G1 X167.276 Y125.023 E17.35741
G1 X167.276 Y125.558 E17.37419
G1 X147.307 Y105.589 E18.26133
G1 X147.307 Y106.098 E18.27731
G1 X147.282 Y106.098 E18.27811
G1 X167.276 Y126.092 E19.16638
G1 X167.276 Y126.626 E19.18317
G1 X146.747 Y106.098 E20.09517
G1 X146.213 Y106.098 E20.11196
G1 X167.276 Y127.160 E21.04770
G1 X167.276 Y127.695 E21.06448
G1 X145.679 Y106.098 E22.02397
G1 X145.145 Y106.098 E22.04075
G1 X167.276 Y128.229 E23.02397
G1 X167.276 Y128.763 E23.04075
G1 X144.610 Y106.098 E24.04770
G1 X144.076 Y106.098 E24.06449
G1 X167.276 Y129.298 E25.09518
G1 X167.276 Y129.832 E25.11196
G1 X143.542 Y106.098 E26.16639
G1 X143.007 Y106.098 E26.18317
G1 X167.276 Y130.366 E27.26134
G1 X167.276 Y130.900 E27.27812
G1 X142.473 Y106.098 E28.38002
G1 X141.939 Y106.098 E28.39680
G1 X167.276 Y131.435 E29.52244
G1 X167.276 Y131.969 E29.53922
G1 X141.405 Y106.098 E30.68860
G1 X140.870 Y106.098 E30.70538
G1 X167.276 Y132.503 E31.87849
G1 X167.276 Y133.038 E31.89528
G1 X140.166 Y105.928 E33.09966
G1 E31.09966 F2400.000
G92 E0
G1 X132.554 Y98.850 F7200.000
G1 E2.00000 F2400.000
G1 F1200.000
G1 X139.341 Y105.637 E2.30152
G1 X139.341 Y106.098 E2.31598
G1 X139.802 Y106.098 E2.33045
G1 X167.276 Y133.572 E3.55103
G1 X167.276 Y134.106 E3.56781
G1 X132.724 Y99.554 E5.10283
G1 X132.724 Y100.089 E5.11962
G1 X167.276 Y134.640 E6.65463
G1 X167.276 Y135.175 E6.67142
G1 X132.724 Y100.623 E8.20643
G1 X132.724 Y101.157 E8.22322
G1 X167.276 Y135.709 E9.75824
G1 X167.276 Y135.776 E9.76034
G1 X166.809 Y135.776 E9.77502
G1 X132.724 Y101.691 E11.28928
G1 X132.724 Y102.226 E11.30606
G1 X166.274 Y135.776 E12.79658
G1 X165.740 Y135.776 E12.81336
G1 X132.724 Y102.760 E14.28014
G1 X132.724 Y103.294 E14.29693
G1 X165.206 Y135.776 E15.73997
G1 X164.671 Y135.776 E15.75676
G1 X132.724 Y103.829 E17.17607
G1 X132.724 Y104.363 E17.19285
G1 X164.137 Y135.776 E18.58842
G1 X163.603 Y135.776 E18.60521
G1 X132.724 Y104.897 E19.97704
G1 X132.724 Y105.431 E19.99383
G1 X163.069 Y135.776 E21.34193
G1 X162.534 Y135.776 E21.35871
G1 X132.724 Y105.966 E22.68307
G1 X132.724 Y106.500 E22.69986
G1 X162.000 Y135.776 E24.00048
G1 X161.466 Y135.776 E24.01727
G1 X132.724 Y107.034 E25.29416
G1 X132.724 Y107.569 E25.31094
G1 X160.931 Y135.776 E26.56409
G1 X160.397 Y135.776 E26.58088
G1 X132.724 Y108.103 E27.81029
G1 X132.724 Y108.637 E27.82708
G1 X159.863 Y135.776 E29.03276
G1 X159.329 Y135.776 E29.04954
G1 X132.724 Y109.171 E30.23149
G1 X132.724 Y109.706 E30.24827
G1 X158.794 Y135.776 E31.40648
G1 X158.260 Y135.776 E31.42326
G1 X132.724 Y110.240 E32.55773
G1 X132.724 Y110.774 E32.57451
G1 X157.726 Y135.776 E33.68525
G1 X157.191 Y135.776 E33.70203
G1 X132.724 Y111.309 E34.78903
G1 X132.724 Y111.843 E34.80581
G1 X156.657 Y135.776 E35.86907
G1 X156.123 Y135.776 E35.88586
G1 X132.724 Y112.377 E36.92538
G1 X132.724 Y112.911 E36.94217
G1 X155.589 Y135.776 E37.95795
G1 X155.054 Y135.776 E37.97474
G1 X132.724 Y113.446 E38.96679
G1 X132.724 Y113.980 E38.98357
G1 X154.520 Y135.776 E39.95189
G1 X153.986 Y135.776 E39.96867
G1 X132.724 Y114.514 E40.91325
G1 X132.724 Y115.049 E40.93003
G1 X153.451 Y135.776 E41.85087
G1 X152.917 Y135.776 E41.86766
G1 X132.724 Y115.583 E42.76476
G1 X132.724 Y116.117 E42.78154
G1 X152.383 Y135.776 E43.65491
G1 X151.849 Y135.776 E43.67170
G1 X132.724 Y116.651 E44.52133
G1 X132.724 Y117.186 E44.53811
G1 X151.314 Y135.776 E45.36401
G1 X150.780 Y135.776 E45.38079
G1 X132.724 Y117.720 E46.18295
G1 X132.724 Y118.254 E46.19973
