; generated by PrusaSlicer 2.3.3+win64 on 2021-10-14 at 19:37:36 UTC

; 

; external perimeters extrusion width = 0.45mm
; perimeters extrusion width = 0.45mm
; infill extrusion width = 0.45mm
; solid infill extrusion width = 0.45mm
; top infill extrusion width = 0.40mm
; first layer extrusion width = 0.42mm

M201 X9000 Y9000 Z500 E10000 ; sets maximum accelerations, mm/sec^2
M203 X500 Y500 Z12 E120 ; sets maximum feedrates, mm/sec
M204 P1500 R1500 T1500 ; sets acceleration (P, T) and retract acceleration (R), mm/sec^2
M205 X10.00 Y10.00 Z0.20 E2.50 ; sets the jerk limits, mm/sec
M205 S0 T0 ; sets the minimum extruding and travel feed rate, mm/sec
M107
M190 S105 ; set bed temperature and wait for it to be reached
M104 S225 ; set temperature
;TYPE:Custom
G28 ; home all axes
G1 Z5 F5000 ; lift nozzle
M109 S225 ; set temperature and wait for it to be reached
G21 ; set units to millimeters
G90 ; use absolute coordinates
M82 ; use absolute distances for extrusion
G92 E0
;LAYER_CHANGE
;Z:0.2
;HEIGHT:0.2
G1 Z0.200 F7200.000
G1 E-2.00000 F2400.000
G92 E0
G1 X127.971 Y59.832 F7200.000
G1 E2.00000 F2400.000
M204 S500
;TYPE:Skirt
;WIDTH:0.42
G1 F1200.000
G1 X128.653 Y59.243 E2.02824
G1 X129.466 Y58.855 E2.05649
G1 X130.348 Y58.696 E2.08459
G1 X169.505 Y58.693 E3.31231
G1 X170.145 Y58.755 E3.33250
G1 X170.767 Y58.939 E3.35282
G1 X171.338 Y59.237 E3.37300
G1 X171.842 Y59.637 E3.39319
G1 X172.261 Y60.125 E3.41337
G1 X172.582 Y60.689 E3.43369
G1 X172.788 Y61.299 E3.45388
G1 X172.875 Y61.941 E3.47420
G1 X172.877 Y137.944 E5.85721
G1 X172.787 Y138.704 E5.88122
G1 X172.531 Y139.420 E5.90508
G1 X172.026 Y140.172 E5.93346
G1 X171.336 Y140.765 E5.96199
G1 X170.512 Y141.152 E5.99052
G1 X169.620 Y141.305 E6.01890
G1 X130.473 Y141.307 E7.24634
G1 X129.722 Y141.216 E7.27006
G1 X129.009 Y140.960 E7.29378
G1 X128.248 Y140.447 E7.32259
G1 X127.650 Y139.743 E7.35154
G1 X127.267 Y138.907 E7.38035
G1 X127.123 Y137.995 E7.40930
G1 X127.123 Y62.056 E9.79031
G1 X127.213 Y61.296 E9.81432
G1 X127.469 Y60.580 E9.83818
G1 X127.938 Y59.881 E9.86455
G1 E7.86455 F2400.000
G92 E0
G1 X152.782 Y132.231 F7200.000
G1 E2.00000 F2400.000
;TYPE:Perimeter
G1 F1200.000
G1 X153.370 Y132.154 E2.01861
G1 X153.959 Y132.231 E2.03721
G1 X154.507 Y132.459 E2.05582
G1 X154.978 Y132.820 E2.07443
G1 X155.339 Y133.291 E2.09304
G1 X155.566 Y133.839 E2.11164
G1 X155.644 Y134.427 E2.13025
G1 X155.566 Y135.016 E2.14886
G1 X155.339 Y135.564 E2.16747
G1 X154.978 Y136.035 E2.18608
G1 X154.507 Y136.396 E2.20468
G1 X153.959 Y136.623 E2.22329
G1 X153.370 Y136.701 E2.24190
G1 X152.782 Y136.623 E2.26051
G1 X152.233 Y136.396 E2.27911
G1 X151.763 Y136.035 E2.29772
G1 X151.401 Y135.564 E2.31633
G1 X151.174 Y135.016 E2.33494
G1 X151.097 Y134.427 E2.35354
G1 X151.174 Y133.839 E2.37215
G1 X151.401 Y133.291 E2.39076
G1 X151.763 Y132.820 E2.40937
G1 X152.233 Y132.459 E2.42797
G1 X152.726 Y132.254 E2.44470
G1 X152.871 Y132.603 F7200.000
G1 F1200.000
G1 X153.370 Y132.534 E2.46051
G1 X153.860 Y132.599 E2.47600
G1 X154.317 Y132.788 E2.49150
G1 X154.709 Y133.089 E2.50699
G1 X155.010 Y133.481 E2.52249
G1 X155.199 Y133.937 E2.53798
G1 X155.263 Y134.427 E2.55347
G1 X155.199 Y134.917 E2.56897
G1 X155.010 Y135.374 E2.58446
G1 X154.709 Y135.766 E2.59996
G1 X154.317 Y136.067 E2.61545
G1 X153.860 Y136.256 E2.63095
G1 X153.370 Y136.320 E2.64644
G1 X152.880 Y136.256 E2.66194
G1 X152.424 Y136.067 E2.67743
G1 X152.032 Y135.766 E2.69293
G1 X151.731 Y135.374 E2.70842
G1 X151.542 Y134.917 E2.72391
G1 X151.477 Y134.427 E2.73941
G1 X151.542 Y133.937 E2.75490
G1 X151.731 Y133.481 E2.77040
G1 X152.032 Y133.089 E2.78589
G1 X152.424 Y132.788 E2.80139
G1 X152.815 Y132.626 E2.81468
G1 X152.979 Y132.966 F7200.000
;TYPE:External perimeter
G1 F1200.000
G1 X153.370 Y132.915 E2.82706
G1 X153.762 Y132.966 E2.83944
G1 X154.126 Y133.117 E2.85182
G1 X154.440 Y133.358 E2.86420
G1 X154.680 Y133.671 E2.87658
G1 X154.831 Y134.036 E2.88896
G1 X154.883 Y134.427 E2.90134
G1 X154.831 Y134.819 E2.91373
G1 X154.680 Y135.184 E2.92611
G1 X154.440 Y135.497 E2.93849
G1 X154.126 Y135.737 E2.95087
G1 X153.762 Y135.888 E2.96325
G1 X153.370 Y135.940 E2.97563
G1 X152.979 Y135.888 E2.98801
G1 X152.614 Y135.737 E3.00040
G1 X152.301 Y135.497 E3.01278
G1 X152.060 Y135.184 E3.02516
G1 X151.909 Y134.819 E3.03754
G1 X151.857 Y134.427 E3.04992
G1 X151.909 Y134.036 E3.06230
G1 X152.060 Y133.671 E3.07468
G1 X152.301 Y133.358 E3.08707
G1 X152.614 Y133.117 E3.09945
G1 X152.923 Y132.989 E3.10995
G1 X153.081 Y132.585 F7200.000
G1 E1.10995 F2400.000
G92 E0
G1 X146.627 Y105.471 F7200.000
G1 E2.00000 F2400.000
;TYPE:Perimeter
G1 F1200.000
G1 X139.745 Y105.471 E2.21580
G1 X139.745 Y96.289 E2.50371
G1 X146.627 Y96.289 E2.71950
G1 X146.627 Y105.411 E3.00553
G1 X146.250 Y105.094 F7200.000
G1 F1200.000
G1 X140.122 Y105.094 E3.19768
G1 X140.122 Y96.666 E3.46194
G1 X146.250 Y96.666 E3.65409
G1 X146.250 Y105.034 E3.91647
G1 X145.873 Y104.717 F7200.000
G1 F1200.000
G1 X140.499 Y104.717 E4.08498
G1 X140.499 Y97.043 E4.32559
G1 X145.873 Y97.043 E4.49410
G1 X145.873 Y104.657 E4.73283
G1 X145.496 Y104.340 F7200.000
;TYPE:External perimeter
G1 F1200.000
G1 X140.876 Y104.340 E4.87769
G1 X140.876 Y97.420 E5.09466
G1 X145.496 Y97.420 E5.23952
G1 X145.496 Y104.280 E5.45461
G1 X145.574 Y104.732 F7200.000
G1 E3.45461 F2400.000
G92 E0
G1 X131.941 Y136.489 F7200.000
G1 E2.00000 F2400.000
;TYPE:Perimeter
G1 F1200.000
G1 X131.941 Y63.511 E4.28816
G1 X148.545 Y63.511 E4.80876
G1 X148.490 Y63.554 E4.81095
G1 X148.068 Y64.103 E4.83267
G1 X147.803 Y64.743 E4.85439
G1 X147.712 Y65.430 E4.87611
G1 X147.803 Y66.117 E4.89783
G1 X148.068 Y66.757 E4.91955
G1 X148.490 Y67.307 E4.94127
G1 X149.039 Y67.728 E4.96299
G1 X149.679 Y67.993 E4.98471
G1 X150.366 Y68.084 E5.00643
G1 X151.053 Y67.993 E5.02815
G1 X151.693 Y67.728 E5.04987
G1 X152.243 Y67.307 E5.07160
G1 X152.664 Y66.757 E5.09332
G1 X152.929 Y66.117 E5.11504
G1 X153.020 Y65.430 E5.13676
G1 X152.929 Y64.743 E5.15848
G1 X152.664 Y64.103 E5.18020
G1 X152.243 Y63.554 E5.20192
G1 X152.187 Y63.511 E5.20410
G1 X168.059 Y63.511 E5.70175
G1 X168.059 Y136.489 E7.98991
G1 X155.005 Y136.489 E8.39919
G1 X155.247 Y136.304 E8.40872
G1 X155.668 Y135.754 E8.43044
G1 X155.933 Y135.114 E8.45216
G1 X156.024 Y134.427 E8.47388
G1 X155.933 Y133.741 E8.49560
G1 X155.668 Y133.101 E8.51732
G1 X155.247 Y132.551 E8.53904
G1 X154.697 Y132.129 E8.56076
G1 X154.057 Y131.864 E8.58248
G1 X153.370 Y131.774 E8.60420
G1 X152.683 Y131.864 E8.62592
G1 X152.043 Y132.129 E8.64764
G1 X151.494 Y132.551 E8.66936
G1 X151.072 Y133.101 E8.69108
G1 X150.807 Y133.741 E8.71280
G1 X150.716 Y134.427 E8.73452
G1 X150.807 Y135.114 E8.75625
G1 X151.072 Y135.754 E8.77797
G1 X151.494 Y136.304 E8.79969
G1 X151.735 Y136.489 E8.80921
G1 X132.001 Y136.489 E9.42795
G1 E7.42795 F2400.000
G92 E0
G1 X149.778 Y67.626 F7200.000
G1 E2.00000 F2400.000
G1 F1200.000
G1 X149.229 Y67.399 E2.01861
G1 X148.759 Y67.038 E2.03721
G1 X148.397 Y66.567 E2.05582
G1 X148.170 Y66.018 E2.07443
G1 X148.093 Y65.430 E2.09304
G1 X148.170 Y64.842 E2.11165
G1 X148.397 Y64.293 E2.13025
G1 X148.759 Y63.823 E2.14886
G1 X149.229 Y63.461 E2.16747
G1 X149.778 Y63.234 E2.18608
G1 X150.366 Y63.157 E2.20468
G1 X150.955 Y63.234 E2.22329
G1 X151.503 Y63.461 E2.24190
G1 X151.974 Y63.823 E2.26051
G1 X152.335 Y64.293 E2.27911
G1 X152.562 Y64.842 E2.29772
G1 X152.639 Y65.430 E2.31633
G1 X152.562 Y66.018 E2.33494
G1 X152.335 Y66.567 E2.35354
G1 X151.974 Y67.038 E2.37215
G1 X151.503 Y67.399 E2.39076
G1 X150.955 Y67.626 E2.40937
G1 X150.366 Y67.703 E2.42797
G1 X149.837 Y67.634 E2.44470
G1 X149.886 Y67.260 F7200.000
G1 F1200.000
G1 X149.420 Y67.069 E2.46051
G1 X149.028 Y66.769 E2.47600
G1 X148.727 Y66.377 E2.49150
G1 X148.538 Y65.920 E2.50699
G1 X148.473 Y65.430 E2.52249
G1 X148.538 Y64.940 E2.53798
G1 X148.727 Y64.484 E2.55348
G1 X149.028 Y64.092 E2.56897
G1 X149.420 Y63.791 E2.58446
G1 X149.876 Y63.602 E2.59996
G1 X150.366 Y63.537 E2.61545
G1 X150.856 Y63.602 E2.63095
G1 X151.313 Y63.791 E2.64644
G1 X151.705 Y64.092 E2.66194
G1 X152.006 Y64.484 E2.67743
G1 X152.195 Y64.940 E2.69293
G1 X152.259 Y65.430 E2.70842
G1 X152.195 Y65.920 E2.72391
G1 X152.006 Y66.377 E2.73941
G1 X151.705 Y66.769 E2.75490
G1 X151.313 Y67.069 E2.77040
G1 X150.856 Y67.259 E2.78589
G1 X150.366 Y67.323 E2.80139
G1 X149.946 Y67.268 E2.81468
G1 X149.975 Y66.891 F7200.000
;TYPE:External perimeter
G1 F1200.000
G1 X149.610 Y66.740 E2.82706
G1 X149.297 Y66.500 E2.83944
G1 X149.056 Y66.186 E2.85182
G1 X148.905 Y65.822 E2.86420
G1 X148.853 Y65.430 E2.87658
G1 X148.905 Y65.039 E2.88896
G1 X149.056 Y64.674 E2.90135
G1 X149.297 Y64.360 E2.91373
G1 X149.610 Y64.120 E2.92611
G1 X149.975 Y63.969 E2.93849
G1 X150.366 Y63.917 E2.95087
G1 X150.758 Y63.969 E2.96325
G1 X151.122 Y64.120 E2.97563
G1 X151.436 Y64.360 E2.98802
G1 X151.676 Y64.674 E3.00040
G1 X151.827 Y65.039 E3.01278
G1 X151.879 Y65.430 E3.02516
G1 X151.827 Y65.822 E3.03754
G1 X151.676 Y66.186 E3.04992
G1 X151.436 Y66.500 E3.06230
G1 X151.122 Y66.740 E3.07468
G1 X150.758 Y66.891 E3.08707
G1 X150.366 Y66.943 E3.09945
G1 X150.034 Y66.899 E3.10995
G1 X149.695 Y67.170 F7200.000
G1 E1.10995 F2400.000
G92 E0
G1 X168.436 Y63.134 F7200.000
G1 E2.00000 F2400.000
;TYPE:Perimeter
G1 F1200.000
G1 X168.436 Y136.866 E4.31181
G1 X131.564 Y136.866 E5.46790
G1 X131.564 Y63.134 E7.77970
G1 X168.376 Y63.134 E8.93392
G1 X168.813 Y62.757 F7200.000
G1 F1200.000
G1 X168.813 Y137.243 E11.26937
G1 X131.187 Y137.243 E12.44911
G1 X131.187 Y62.757 E14.78456
G1 X168.753 Y62.757 E15.96241
G1 X169.190 Y62.380 F7200.000
;TYPE:External perimeter
G1 F1200.000
G1 X169.190 Y137.620 E18.32151
G1 X130.810 Y137.620 E19.52490
G1 X130.810 Y62.380 E21.88399
G1 X169.130 Y62.380 E23.08550
G1 X169.127 Y62.775 F7200.000
G1 E21.08550 F2400.000
G92 E0
G1 X167.180 Y63.624 F7200.000
G1 E2.00000 F2400.000
;TYPE:Solid infill
;WIDTH:0.421616
G1 F1200.000
G1 X167.776 Y64.220 E2.02654
G1 X167.776 Y64.756 E2.04341
G1 X166.814 Y63.794 E2.08624
G1 X166.279 Y63.794 E2.10310
G1 X167.776 Y65.291 E2.16979
G1 X167.776 Y65.827 E2.18665
G1 X165.743 Y63.794 E2.27718
G1 X165.208 Y63.794 E2.29405
G1 X167.776 Y66.363 E2.40843
G1 X167.776 Y66.898 E2.42529
G1 X164.672 Y63.794 E2.56353
G1 X164.136 Y63.794 E2.58039
G1 X167.776 Y67.434 E2.74247
G1 X167.776 Y67.969 E2.75934
G1 X163.601 Y63.794 E2.94527
G1 X163.065 Y63.794 E2.96213
G1 X167.776 Y68.505 E3.17191
G1 X167.776 Y69.040 E3.18877
G1 X162.530 Y63.794 E3.42240
G1 X161.994 Y63.794 E3.43927
G1 X167.776 Y69.576 E3.69674
G1 X167.776 Y70.111 E3.71361
G1 X161.459 Y63.794 E3.99493
G1 X160.923 Y63.794 E4.01180
G1 X167.776 Y70.647 E4.31697
G1 X167.776 Y71.183 E4.33384
G1 X160.388 Y63.794 E4.66286
G1 X159.852 Y63.794 E4.67973
G1 X167.776 Y71.718 E5.03260
G1 X167.776 Y72.254 E5.04947
G1 X159.316 Y63.794 E5.42619
G1 X158.781 Y63.794 E5.44306
G1 X167.776 Y72.789 E5.84363
G1 X167.776 Y73.325 E5.86049
G1 X158.245 Y63.794 E6.28492
G1 X157.710 Y63.794 E6.30178
G1 X167.776 Y73.860 E6.75005
G1 X167.776 Y74.396 E6.76692
G1 X157.174 Y63.794 E7.23904
G1 X156.639 Y63.794 E7.25590
G1 X167.776 Y74.932 E7.75187
G1 X167.776 Y75.467 E7.76874
G1 X156.103 Y63.794 E8.28856
G1 X155.568 Y63.794 E8.30542
G1 X167.776 Y76.003 E8.84909
G1 X167.776 Y76.538 E8.86595
G1 X155.032 Y63.794 E9.43347
G1 X154.496 Y63.794 E9.45034
G1 X167.776 Y77.074 E10.04170
G1 X167.776 Y77.609 E10.05857
G1 X153.961 Y63.794 E10.67378
G1 X153.425 Y63.794 E10.69065
G1 X167.776 Y78.145 E11.32971
G1 X167.776 Y78.680 E11.34658
G1 X152.890 Y63.794 E12.00949
G1 X152.783 Y63.794 E12.01284
G1 X152.911 Y63.961 E12.01945
G1 X153.187 Y64.627 E12.04218
G1 X167.776 Y79.216 E12.69183
G1 X167.776 Y79.752 E12.70870
G1 X153.282 Y65.258 E13.35413
G1 X153.305 Y65.430 E13.35960
G1 X153.260 Y65.771 E13.37043
G1 X167.776 Y80.287 E14.01685
G1 X167.776 Y80.823 E14.03371
G1 X153.187 Y66.234 E14.68339
G1 X153.030 Y66.612 E14.69629
G1 X167.776 Y81.358 E15.35295
G1 X167.776 Y81.894 E15.36981
G1 X152.855 Y66.973 E16.03427
G1 X152.623 Y67.276 E16.04630
G1 X167.776 Y82.429 E16.72111
G1 X167.776 Y82.965 E16.73797
G1 X152.374 Y67.562 E17.42387
G1 X152.071 Y67.795 E17.43590
G1 X167.776 Y83.500 E18.13529
G1 X167.776 Y84.036 E18.15215
G1 X151.751 Y68.010 E18.86580
G1 X151.372 Y68.167 E18.87870
G1 X167.776 Y84.572 E19.60921
G1 X167.776 Y85.107 E19.62608
G1 X150.960 Y68.291 E20.37493
G1 X150.487 Y68.353 E20.38996
G1 X167.776 Y85.643 E21.15989
G1 X167.776 Y86.178 E21.17676
G1 X149.709 Y68.111 E21.98130
G1 E19.98130 F2400.000
G92 E0
G1 X147.916 Y64.176 F7200.000
G1 E2.00000 F2400.000
G1 F1200.000
G1 X147.534 Y63.794 E2.01699
G1 X146.999 Y63.794 E2.03385
G1 X147.629 Y64.424 E2.06192
G1 X147.527 Y64.669 E2.07027
G1 X147.505 Y64.836 E2.07558
G1 X146.463 Y63.794 E2.12199
G1 X145.927 Y63.794 E2.13886
G1 X147.443 Y65.310 E2.20635
G1 X147.427 Y65.430 E2.21018
G1 X147.488 Y65.890 E2.22478
G1 X145.392 Y63.794 E2.31811
G1 X144.856 Y63.794 E2.33497
G1 X147.721 Y66.659 E2.46256
G1 X147.821 Y66.900 E2.47075
G1 X148.288 Y67.508 E2.49491
G1 X148.897 Y67.975 E2.51907
G1 X149.137 Y68.075 E2.52727
G1 X167.776 Y86.714 E3.35729
G1 X167.776 Y87.249 E3.37415
G1 X144.321 Y63.794 E4.41866
G1 X143.785 Y63.794 E4.43552
G1 X167.776 Y87.785 E5.50388
G1 X167.776 Y88.320 E5.52074
G1 X143.250 Y63.794 E6.61294
G1 X142.714 Y63.794 E6.62981
G1 X167.776 Y88.856 E7.74586
G1 X167.776 Y89.392 E7.76272
G1 X142.179 Y63.794 E8.90263
G1 X141.643 Y63.794 E8.91949
G1 X167.776 Y89.927 E10.08324
G1 X167.776 Y90.463 E10.10010
G1 X141.107 Y63.794 E11.28770
G1 X140.572 Y63.794 E11.30457
G1 X167.776 Y90.998 E12.51602
G1 X167.776 Y91.534 E12.53288
G1 X140.036 Y63.794 E13.76818
G1 X139.501 Y63.794 E13.78504
G1 X167.776 Y92.069 E15.04419
G1 X167.776 Y92.605 E15.06106
G1 X138.965 Y63.794 E16.34405
G1 X138.430 Y63.794 E16.36092
G1 X167.776 Y93.140 E17.66776
G1 X167.776 Y93.676 E17.68463
G1 X137.894 Y63.794 E19.01532
G1 X137.359 Y63.794 E19.03219
G1 X167.776 Y94.212 E20.38673
G1 X167.776 Y94.747 E20.40360
G1 X136.823 Y63.794 E21.78199
G1 X136.287 Y63.794 E21.79886
G1 X167.776 Y95.283 E23.20110
G1 X167.776 Y95.818 E23.21796
G1 X135.752 Y63.794 E24.64406
G1 X135.216 Y63.794 E24.66092
G1 X167.776 Y96.354 E26.11086
G1 X167.776 Y96.889 E26.12773
G1 X134.681 Y63.794 E27.60152
G1 X134.145 Y63.794 E27.61838
G1 X167.776 Y97.425 E29.11603
G1 X167.776 Y97.960 E29.13289
G1 X133.610 Y63.794 E30.65438
G1 X133.074 Y63.794 E30.67124
G1 X167.776 Y98.496 E32.21658
G1 X167.776 Y99.032 E32.23345
G1 X132.539 Y63.794 E33.80264
G1 X132.224 Y63.794 E33.81254
G1 X132.224 Y64.015 E33.81950
G1 X167.776 Y99.567 E35.40270
G1 X167.776 Y100.103 E35.41956
G1 X132.224 Y64.551 E37.00276
G1 X132.224 Y65.086 E37.01963
G1 X167.776 Y100.638 E38.60283
G1 X167.776 Y101.174 E38.61969
G1 X132.224 Y65.622 E40.20289
G1 X132.224 Y66.157 E40.21976
G1 X167.776 Y101.709 E41.80296
G1 X167.776 Y102.245 E41.81982
G1 X132.224 Y66.693 E43.40302
G1 X132.224 Y67.228 E43.41988
G1 X167.776 Y102.780 E45.00308
G1 X167.776 Y103.316 E45.01995
G1 X132.224 Y67.764 E46.60315
G1 X132.224 Y68.299 E46.62001
G1 X167.776 Y103.852 E48.20321
G1 X167.776 Y104.387 E48.22007
G1 X132.224 Y68.835 E49.80327
G1 X132.224 Y69.371 E49.82014
G1 X167.776 Y104.923 E51.40334
G1 X167.776 Y105.458 E51.42020
G1 X132.224 Y69.906 E53.00340
G1 X132.224 Y70.442 E53.02027
G1 X167.776 Y105.994 E54.60347
G1 X167.776 Y106.529 E54.62033
G1 X132.224 Y70.977 E56.20353
G1 X132.224 Y71.513 E56.22039
G1 X167.776 Y107.065 E57.80359
G1 X167.776 Y107.600 E57.82046
G1 X132.224 Y72.048 E59.40366
G1 X132.224 Y72.584 E59.42052
G1 X167.776 Y108.136 E61.00372
G1 X167.776 Y108.672 E61.02059
G1 X132.224 Y73.119 E62.60378
G1 X132.224 Y73.655 E62.62065
G1 X167.776 Y109.207 E64.20385
G1 X167.776 Y109.743 E64.22071
G1 X132.224 Y74.191 E65.80391
G1 X132.224 Y74.726 E65.82078
G1 X167.776 Y110.278 E67.40398
G1 X167.776 Y110.814 E67.42084
G1 X132.224 Y75.262 E69.00404
G1 X132.224 Y75.797 E69.02090
G1 X167.776 Y111.349 E70.60410
G1 X167.776 Y111.885 E70.62097
G1 X132.224 Y76.333 E72.20417
G1 X132.224 Y76.868 E72.22103
G1 X167.776 Y112.420 E73.80423
G1 X167.776 Y112.956 E73.82110
G1 X132.224 Y77.404 E75.40430
G1 X132.224 Y77.939 E75.42116
G1 X167.776 Y113.492 E77.00436
G1 X167.776 Y114.027 E77.02122
