; generated by PrusaSlicer 2.3.3+win64 on 2021-10-14 at 19:36:55 UTC

; 

; external perimeters extrusion width = 0.45mm
; perimeters extrusion width = 0.45mm
; infill extrusion width = 0.45mm
; solid infill extrusion width = 0.45mm
; top infill extrusion width = 0.40mm
; first layer extrusion width = 0.42mm

M201 X9000 Y9000 Z500 E10000 ; sets maximum accelerations, mm/sec^2
M203 X500 Y500 Z12 E120 ; sets maximum feedrates, mm/sec
M204 P1500 R1500 T1500 ; sets acceleration (P, T) and retract acceleration (R), mm/sec^2
M205 X10.00 Y10.00 Z0.20 E2.50 ; sets the jerk limits, mm/sec
M205 S0 T0 ; sets the minimum extruding and travel feed rate, mm/sec
M107
M190 S105 ; set bed temperature and wait for it to be reached
M104 S225 ; set temperature
;TYPE:Custom
G28 ; home all axes
G1 Z5 F5000 ; lift nozzle
M109 S225 ; set temperature and wait for it to be reached
G21 ; set units to millimeters
G90 ; use absolute coordinates
M82 ; use absolute distances for extrusion
G92 E0
;LAYER_CHANGE
;Z:0.2
;HEIGHT:0.2
G1 Z0.200 F7200.000
G1 E-2.00000 F2400.000
G92 E0
G1 X127.971 Y59.832 F7200.000
G1 E2.00000 F2400.000
M204 S500
;TYPE:Skirt
;WIDTH:0.42
G1 F1200.000
G1 X128.653 Y59.243 E2.02824
G1 X129.466 Y58.855 E2.05649
G1 X130.348 Y58.696 E2.08459
G1 X169.505 Y58.693 E3.31231
G1 X170.145 Y58.755 E3.33250
G1 X170.767 Y58.939 E3.35282
G1 X171.338 Y59.237 E3.37300
G1 X171.842 Y59.637 E3.39319
G1 X172.261 Y60.125 E3.41337
G1 X172.582 Y60.689 E3.43369
G1 X172.788 Y61.299 E3.45388
G1 X172.875 Y61.941 E3.47420
G1 X172.877 Y137.944 E5.85721
G1 X172.787 Y138.704 E5.88122
G1 X172.531 Y139.420 E5.90508
G1 X172.026 Y140.172 E5.93346
G1 X171.336 Y140.765 E5.96199
G1 X170.512 Y141.152 E5.99052
G1 X169.620 Y141.305 E6.01890
G1 X130.473 Y141.307 E7.24634
G1 X129.722 Y141.216 E7.27006
G1 X129.009 Y140.960 E7.29378
G1 X128.248 Y140.447 E7.32259
G1 X127.650 Y139.743 E7.35154
G1 X127.267 Y138.907 E7.38035
G1 X127.123 Y137.995 E7.40930
G1 X127.123 Y62.056 E9.79031
G1 X127.213 Y61.296 E9.81432
G1 X127.469 Y60.580 E9.83818
G1 X127.938 Y59.881 E9.86455
G1 E7.86455 F2400.000
G92 E0
G1 X133.317 Y109.548 F7200.000
G1 E2.00000 F2400.000
;TYPE:Perimeter
G1 F1200.000
G1 X166.620 Y109.548 E3.04418
G1 X166.620 Y128.131 E3.62682
G1 X133.317 Y128.131 E4.67099
G1 X133.317 Y109.608 E5.25175
G1 X133.694 Y109.925 F7200.000
G1 F1200.000
G1 X166.243 Y109.925 E6.27228
G1 X166.243 Y127.754 E6.83127
G1 X133.694 Y127.754 E7.85180
G1 X133.694 Y109.985 E8.40892
G1 X134.071 Y110.302 F7200.000
G1 F1200.000
G1 X165.866 Y110.302 E9.40580
G1 X165.866 Y127.377 E9.94115
G1 X134.071 Y127.377 E10.93803
G1 X134.071 Y110.362 E11.47150
G1 X134.448 Y110.679 F7200.000
;TYPE:External perimeter
G1 F1200.000
G1 X165.488 Y110.679 E12.44474
G1 X165.488 Y126.999 E12.95644
G1 X134.448 Y126.999 E13.92968
G1 X134.448 Y110.739 E14.43950
G1 X134.307 Y110.305 F7200.000
G1 E12.43950 F2400.000
G92 E0
G1 X131.941 Y136.489 F7200.000
G1 E2.00000 F2400.000
;TYPE:Perimeter
G1 F1200.000
G1 X131.941 Y63.511 E4.28816
G1 X168.059 Y63.511 E5.42061
G1 X168.059 Y136.489 E7.70877
G1 X132.001 Y136.489 E8.83933
G1 X131.564 Y136.866 F7200.000
G1 F1200.000
G1 X131.564 Y63.134 E11.15114
G1 X168.436 Y63.134 E12.30723
G1 X168.436 Y136.866 E14.61903
G1 X131.624 Y136.866 E15.77325
G1 X131.187 Y137.243 F7200.000
G1 F1200.000
G1 X131.187 Y62.757 E18.10870
G1 X168.813 Y62.757 E19.28844
G1 X168.813 Y137.243 E21.62389
G1 X131.247 Y137.243 E22.80175
G1 X130.810 Y137.620 F7200.000
;TYPE:External perimeter
G1 F1200.000
G1 X130.810 Y62.380 E25.16084
G1 X169.190 Y62.380 E26.36423
G1 X169.190 Y137.620 E28.72333
G1 X130.870 Y137.620 E29.92483
G1 X130.873 Y137.225 F7200.000
G1 E27.92483 F2400.000
G92 E0
G1 X167.180 Y63.624 F7200.000
G1 E2.00000 F2400.000
;TYPE:Solid infill
;WIDTH:0.421616
G1 F1200.000
G1 X167.776 Y64.220 E2.02654
G1 X167.776 Y64.756 E2.04341
G1 X166.814 Y63.794 E2.08624
G1 X166.279 Y63.794 E2.10310
G1 X167.776 Y65.291 E2.16979
G1 X167.776 Y65.827 E2.18665
G1 X165.743 Y63.794 E2.27718
G1 X165.208 Y63.794 E2.29405
G1 X167.776 Y66.363 E2.40843
G1 X167.776 Y66.898 E2.42530
G1 X164.672 Y63.794 E2.56353
G1 X164.136 Y63.794 E2.58039
G1 X167.776 Y67.434 E2.74247
G1 X167.776 Y67.969 E2.75934
G1 X163.601 Y63.794 E2.94527
G1 X163.065 Y63.794 E2.96213
G1 X167.776 Y68.505 E3.17191
G1 X167.776 Y69.040 E3.18877
G1 X162.530 Y63.794 E3.42240
G1 X161.994 Y63.794 E3.43927
G1 X167.776 Y69.576 E3.69674
G1 X167.776 Y70.111 E3.71361
G1 X161.459 Y63.794 E3.99494
G1 X160.923 Y63.794 E4.01180
G1 X167.776 Y70.647 E4.31698
G1 X167.776 Y71.183 E4.33384
G1 X160.388 Y63.794 E4.66287
G1 X159.852 Y63.794 E4.67973
G1 X167.776 Y71.718 E5.03261
G1 X167.776 Y72.254 E5.04947
G1 X159.316 Y63.794 E5.42619
G1 X158.781 Y63.794 E5.44306
G1 X167.776 Y72.789 E5.84363
G1 X167.776 Y73.325 E5.86050
G1 X158.245 Y63.794 E6.28492
G1 X157.710 Y63.794 E6.30178
G1 X167.776 Y73.860 E6.75006
G1 X167.776 Y74.396 E6.76692
G1 X157.174 Y63.794 E7.23904
G1 X156.639 Y63.794 E7.25591
G1 X167.776 Y74.932 E7.75188
G1 X167.776 Y75.467 E7.76874
G1 X156.103 Y63.794 E8.28856
G1 X155.567 Y63.794 E8.30542
G1 X167.776 Y76.003 E8.84909
G1 X167.776 Y76.538 E8.86596
G1 X155.032 Y63.794 E9.43348
G1 X154.496 Y63.794 E9.45034
G1 X167.776 Y77.074 E10.04171
G1 X167.776 Y77.609 E10.05857
G1 X153.961 Y63.794 E10.67379
G1 X153.425 Y63.794 E10.69065
G1 X167.776 Y78.145 E11.32972
G1 X167.776 Y78.680 E11.34659
G1 X152.890 Y63.794 E12.00950
G1 X152.354 Y63.794 E12.02637
G1 X167.776 Y79.216 E12.71313
G1 X167.776 Y79.752 E12.72999
G1 X151.819 Y63.794 E13.44061
G1 X151.283 Y63.794 E13.45747
G1 X167.776 Y80.287 E14.19194
G1 X167.776 Y80.823 E14.20880
G1 X150.747 Y63.794 E14.96711
G1 X150.212 Y63.794 E14.98398
G1 X167.776 Y81.358 E15.76614
G1 X167.776 Y81.894 E15.78300
G1 X149.676 Y63.794 E16.58902
G1 X149.141 Y63.794 E16.60588
G1 X167.776 Y82.429 E17.43574
G1 X167.776 Y82.965 E17.45261
G1 X148.605 Y63.794 E18.30632
G1 X148.070 Y63.794 E18.32318
G1 X167.776 Y83.500 E19.20074
G1 X167.776 Y84.036 E19.21760
G1 X147.534 Y63.794 E20.11901
G1 X146.999 Y63.794 E20.13588
G1 X167.776 Y84.572 E21.06113
G1 X167.776 Y85.107 E21.07800
G1 X146.463 Y63.794 E22.02711
G1 X145.927 Y63.794 E22.04397
G1 X167.776 Y85.643 E23.01693
G1 X167.776 Y86.178 E23.03379
G1 X145.392 Y63.794 E24.03060
G1 X144.856 Y63.794 E24.04746
G1 X167.776 Y86.714 E25.06812
G1 X167.776 Y87.249 E25.08498
G1 X144.321 Y63.794 E26.12949
G1 X143.785 Y63.794 E26.14635
G1 X167.776 Y87.785 E27.21470
G1 X167.776 Y88.320 E27.23157
G1 X143.250 Y63.794 E28.32377
G1 X142.714 Y63.794 E28.34063
G1 X167.776 Y88.856 E29.45669
G1 X167.776 Y89.392 E29.47355
G1 X142.179 Y63.794 E30.61345
G1 X141.643 Y63.794 E30.63032
G1 X167.776 Y89.927 E31.79407
G1 X167.776 Y90.463 E31.81093
G1 X141.107 Y63.794 E32.99853
G1 X140.572 Y63.794 E33.01540
G1 X167.776 Y90.998 E34.22685
G1 X167.776 Y91.534 E34.24371
G1 X140.036 Y63.794 E35.47901
G1 X139.501 Y63.794 E35.49587
G1 X167.776 Y92.069 E36.75502
G1 X167.776 Y92.605 E36.77189
G1 X138.965 Y63.794 E38.05488
G1 X138.430 Y63.794 E38.07175
G1 X167.776 Y93.140 E39.37859
G1 X167.776 Y93.676 E39.39546
G1 X137.894 Y63.794 E40.72615
G1 X137.359 Y63.794 E40.74302
G1 X167.776 Y94.212 E42.09756
G1 X167.776 Y94.747 E42.11443
G1 X136.823 Y63.794 E43.49282
G1 X136.287 Y63.794 E43.50969
G1 X167.776 Y95.283 E44.91193
G1 X167.776 Y95.818 E44.92879
G1 X135.752 Y63.794 E46.35489
G1 X135.216 Y63.794 E46.37175
G1 X167.776 Y96.354 E47.82169
G1 X167.776 Y96.889 E47.83856
G1 X134.681 Y63.794 E49.31235
G1 X134.145 Y63.794 E49.32921
G1 X167.776 Y97.425 E50.82685
G1 X167.776 Y97.960 E50.84372
G1 X133.610 Y63.794 E52.36521
G1 X133.074 Y63.794 E52.38207
G1 X167.776 Y98.496 E53.92741
G1 X167.776 Y99.032 E53.94428
G1 X132.539 Y63.794 E55.51347
G1 X132.224 Y63.794 E55.52337
G1 X132.224 Y64.015 E55.53033
G1 X167.776 Y99.567 E57.11353
G1 X167.776 Y100.103 E57.13039
G1 X132.224 Y64.551 E58.71359
G1 X132.224 Y65.086 E58.73046
G1 X167.776 Y100.638 E60.31366
G1 X167.776 Y101.174 E60.33052
G1 X132.224 Y65.622 E61.91372
G1 X132.224 Y66.157 E61.93059
G1 X167.776 Y101.709 E63.51379
G1 X167.776 Y102.245 E63.53065
G1 X132.224 Y66.693 E65.11385
G1 X132.224 Y67.228 E65.13071
G1 X167.776 Y102.780 E66.71391
G1 X167.776 Y103.316 E66.73078
G1 X132.224 Y67.764 E68.31398
G1 X132.224 Y68.299 E68.33084
G1 X167.776 Y103.852 E69.91404
G1 X167.776 Y104.387 E69.93090
G1 X132.224 Y68.835 E71.51410
G1 X132.224 Y69.371 E71.53097
G1 X167.776 Y104.923 E73.11417
G1 X167.776 Y105.458 E73.13103
G1 X132.224 Y69.906 E74.71423
G1 X132.224 Y70.442 E74.73110
G1 X167.776 Y105.994 E76.31430
G1 X167.776 Y106.529 E76.33116
G1 X132.224 Y70.977 E77.91436
G1 X132.224 Y71.513 E77.93122
G1 X167.776 Y107.065 E79.51442
G1 X167.776 Y107.600 E79.53129
G1 X132.224 Y72.048 E81.11449
G1 X132.224 Y72.584 E81.13135
G1 X167.776 Y108.136 E82.71455
G1 X167.776 Y108.672 E82.73141
G1 X132.224 Y73.119 E84.31461
G1 X132.224 Y73.655 E84.33148
G1 X167.776 Y109.207 E85.91468
G1 X167.776 Y109.743 E85.93154
G1 X132.224 Y74.191 E87.51474
G1 X132.224 Y74.726 E87.53161
G1 X167.776 Y110.278 E89.11481
G1 X167.776 Y110.814 E89.13167
G1 X166.903 Y109.940 E89.17057
G1 X166.903 Y110.476 E89.18744
G1 X167.776 Y111.349 E89.22634
G1 X167.776 Y111.885 E89.24320
G1 X166.903 Y111.011 E89.28210
G1 X166.903 Y111.547 E89.29897
G1 X167.776 Y112.420 E89.33787
G1 X167.776 Y112.956 E89.35473
G1 X166.903 Y112.082 E89.39363
G1 X166.903 Y112.618 E89.41050
G1 X167.776 Y113.492 E89.44940
G1 X167.776 Y114.027 E89.46626
G1 X166.903 Y113.154 E89.50516
G1 X166.903 Y113.689 E89.52203
G1 X167.776 Y114.563 E89.56093
G1 X167.776 Y115.098 E89.57779
G1 X166.903 Y114.225 E89.61669
G1 X166.903 Y114.760 E89.63356
G1 X167.776 Y115.634 E89.67246
G1 X167.776 Y116.169 E89.68932
G1 X166.903 Y115.296 E89.72822
G1 X166.903 Y115.831 E89.74509
G1 X167.776 Y116.705 E89.78399
G1 X167.776 Y117.241 E89.80085
G1 X166.903 Y116.367 E89.83975
G1 X166.903 Y116.903 E89.85662
G1 X167.776 Y117.776 E89.89552
G1 X167.776 Y118.312 E89.91238
G1 X166.903 Y117.438 E89.95128
G1 X166.903 Y117.974 E89.96815
G1 X167.776 Y118.847 E90.00705
G1 X167.776 Y119.383 E90.02391
G1 X166.903 Y118.509 E90.06281
G1 X166.903 Y119.045 E90.07968
G1 X167.776 Y119.918 E90.11858
G1 X167.776 Y120.454 E90.13544
G1 X166.903 Y119.580 E90.17435
G1 X166.903 Y120.116 E90.19121
G1 X167.776 Y120.989 E90.23011
G1 X167.776 Y121.525 E90.24697
G1 X166.903 Y120.651 E90.28588
G1 X166.903 Y121.187 E90.30274
G1 X167.776 Y122.061 E90.34164
G1 X167.776 Y122.596 E90.35850
G1 X166.903 Y121.723 E90.39741
G1 X166.903 Y122.258 E90.41427
G1 X167.776 Y123.132 E90.45317
G1 X167.776 Y123.667 E90.47004
G1 X166.903 Y122.794 E90.50894
G1 X166.903 Y123.329 E90.52580
G1 X167.776 Y124.203 E90.56470
G1 X167.776 Y124.738 E90.58157
G1 X166.903 Y123.865 E90.62047
G1 X166.903 Y124.400 E90.63733
G1 X167.776 Y125.274 E90.67623
G1 X167.776 Y125.809 E90.69310
G1 X166.903 Y124.936 E90.73200
G1 X166.903 Y125.471 E90.74886
G1 X167.776 Y126.345 E90.78776
G1 X167.776 Y126.881 E90.80463
G1 X166.903 Y126.007 E90.84353
G1 X166.903 Y126.543 E90.86039
G1 X167.776 Y127.416 E90.89929
G1 X167.776 Y127.952 E90.91616
G1 X166.903 Y127.078 E90.95506
G1 X166.903 Y127.614 E90.97192
G1 X167.776 Y128.487 E91.01082
G1 X167.776 Y129.023 E91.02769
G1 X166.903 Y128.149 E91.06659
G1 X166.903 Y128.414 E91.07491
G1 X166.631 Y128.414 E91.08345
G1 X167.776 Y129.558 E91.13443
G1 X167.776 Y130.094 E91.15130
G1 X166.096 Y128.414 E91.22613
G1 X165.560 Y128.414 E91.24299
G1 X167.776 Y130.629 E91.34167
G1 X167.776 Y131.165 E91.35853
G1 X165.025 Y128.414 E91.48106
G1 X164.489 Y128.414 E91.49793
G1 X167.776 Y131.701 E91.64430
G1 X167.776 Y132.236 E91.66117
G1 X163.953 Y128.414 E91.83139
G1 X163.418 Y128.414 E91.84826
G1 X167.776 Y132.772 E92.04233
G1 X167.776 Y133.307 E92.05920
G1 X162.882 Y128.414 E92.27712
G1 X162.347 Y128.414 E92.29399
G1 X167.776 Y133.843 E92.53576
G1 X167.776 Y134.378 E92.55263
G1 X161.811 Y128.414 E92.81825
G1 X161.276 Y128.414 E92.83511
G1 X167.776 Y134.914 E93.12459
G1 X167.776 Y135.449 E93.14145
G1 X160.740 Y128.414 E93.45477
G1 X160.205 Y128.414 E93.47164
G1 X167.776 Y135.985 E93.80881
G1 X167.776 Y136.206 E93.81577
G1 X167.461 Y136.206 E93.82567
G1 X159.669 Y128.414 E94.17268
G1 X159.133 Y128.414 E94.18955
G1 X166.926 Y136.206 E94.53656
G1 X166.390 Y136.206 E94.55342
G1 X158.598 Y128.414 E94.90044
G1 X158.062 Y128.414 E94.91730
G1 X165.855 Y136.206 E95.26431
G1 X165.319 Y136.206 E95.28118
G1 X157.527 Y128.414 E95.62819
G1 X156.991 Y128.414 E95.64505
G1 X164.784 Y136.206 E95.99206
G1 X164.248 Y136.206 E96.00893
G1 X156.456 Y128.414 E96.35594
G1 X155.920 Y128.414 E96.37280
G1 X163.713 Y136.206 E96.71981
G1 X163.177 Y136.206 E96.73668
G1 X155.385 Y128.414 E97.08369
G1 X154.849 Y128.414 E97.10055
G1 X162.641 Y136.206 E97.44756
G1 X162.106 Y136.206 E97.46443
G1 X154.313 Y128.414 E97.81144
G1 X153.778 Y128.414 E97.82830
G1 X161.570 Y136.206 E98.17532
G1 X161.035 Y136.206 E98.19218
G1 X153.242 Y128.414 E98.53919
G1 X152.707 Y128.414 E98.55605
G1 X160.499 Y136.206 E98.90307
G1 X159.964 Y136.206 E98.91993
G1 X152.171 Y128.414 E99.26694
G1 X151.636 Y128.414 E99.28381
G1 X159.428 Y136.206 E99.63082
G1 X158.893 Y136.206 E99.64768
G1 X151.100 Y128.414 E99.99469
G1 X150.565 Y128.414 E100.01156
G1 X158.357 Y136.206 E100.35857
G1 X157.821 Y136.206 E100.37543
G1 X150.029 Y128.414 E100.72244
G1 X149.493 Y128.414 E100.73931
G1 X157.286 Y136.206 E101.08632
G1 X156.750 Y136.206 E101.10318
G1 X148.958 Y128.414 E101.45019
G1 X148.422 Y128.414 E101.46706
G1 X156.215 Y136.206 E101.81407
G1 X155.679 Y136.206 E101.83093
G1 X147.887 Y128.414 E102.17795
G1 X147.351 Y128.414 E102.19481
G1 X155.144 Y136.206 E102.54182
G1 X154.608 Y136.206 E102.55869
G1 X146.816 Y128.414 E102.90570
G1 X146.280 Y128.414 E102.92256
G1 X154.073 Y136.206 E103.26957
G1 X153.537 Y136.206 E103.28644
G1 X145.745 Y128.414 E103.63345
G1 X145.209 Y128.414 E103.65031
G1 X153.001 Y136.206 E103.99732
G1 X152.466 Y136.206 E104.01419
G1 X144.673 Y128.414 E104.36120
G1 X144.138 Y128.414 E104.37806
G1 X151.930 Y136.206 E104.72507
G1 X151.395 Y136.206 E104.74194
G1 X143.602 Y128.414 E105.08895
G1 X143.067 Y128.414 E105.10581
G1 X150.859 Y136.206 E105.45283
G1 X150.324 Y136.206 E105.46969
G1 X142.531 Y128.414 E105.81670
G1 X141.996 Y128.414 E105.83356
G1 X149.788 Y136.206 E106.18058
G1 X149.253 Y136.206 E106.19744
G1 X141.460 Y128.414 E106.54445
G1 X140.925 Y128.414 E106.56132
G1 X148.717 Y136.206 E106.90833
G1 X148.181 Y136.206 E106.92519
G1 X140.389 Y128.414 E107.27220
G1 X139.853 Y128.414 E107.28907
G1 X147.646 Y136.206 E107.63608
G1 X147.110 Y136.206 E107.65294
G1 X139.318 Y128.414 E107.99995
G1 X138.782 Y128.414 E108.01682
G1 X146.575 Y136.206 E108.36383
G1 X146.039 Y136.206 E108.38069
G1 X138.247 Y128.414 E108.72770
G1 X137.711 Y128.414 E108.74457
G1 X145.504 Y136.206 E109.09158
G1 X144.968 Y136.206 E109.10844
G1 X137.176 Y128.414 E109.45546
G1 X136.640 Y128.414 E109.47232
G1 X144.433 Y136.206 E109.81933
G1 X143.897 Y136.206 E109.83619
G1 X136.105 Y128.414 E110.18321
G1 X135.569 Y128.414 E110.20007
G1 X143.361 Y136.206 E110.54708
G1 X142.826 Y136.206 E110.56395
G1 X135.033 Y128.414 E110.91096
G1 X134.498 Y128.414 E110.92782
G1 X142.290 Y136.206 E111.27483
G1 X141.755 Y136.206 E111.29170
G1 X133.793 Y128.244 E111.64626
G1 E109.64626 F2400.000
G92 E0
G1 X166.397 Y109.435 F7200.000
G1 E2.00000 F2400.000
G1 F1200.000
G1 X132.224 Y75.262 E3.52180
G1 X132.224 Y75.797 E3.53867
G1 X165.692 Y109.265 E5.02907
G1 X165.157 Y109.265 E5.04593
G1 X132.224 Y76.333 E6.51248
G1 X132.224 Y76.868 E6.52934
G1 X164.621 Y109.265 E7.97204
G1 X164.085 Y109.265 E7.98891
G1 X132.224 Y77.404 E9.40776
G1 X132.224 Y77.939 E9.42462
G1 X163.550 Y109.265 E10.81962
G1 X163.014 Y109.265 E10.83649
G1 X132.224 Y78.475 E12.20764
G1 X132.224 Y79.011 E12.22450
G1 X162.479 Y109.265 E13.57181
G1 X161.943 Y109.265 E13.58867
G1 X132.224 Y79.546 E14.91212
G1 X132.224 Y80.082 E14.92899
G1 X161.408 Y109.265 E16.22859
G1 X160.872 Y109.265 E16.24545
G1 X132.224 Y80.617 E17.52121
G1 X132.224 Y81.153 E17.53807
G1 X160.337 Y109.265 E18.78998
G1 X159.801 Y109.265 E18.80684
G1 X132.224 Y81.688 E20.03490
G1 X132.224 Y82.224 E20.05176
G1 X159.265 Y109.265 E21.25597
